X: 1
T: American Patrol  [C]
C: by Frank W. Meacham 1885
S: arr. T. Traub 4-26-2007 (from midi by Bill Edwards)
R: Reel
M: 4/4
L: 1/4
K: C
G, \
| "C"C C "G"C/B,/C/D/ | "C"E E "G"E/^D/E/F/ | "C"G G G/^F/G/c/ | G3 E |\
"G7"F F/E/ D F | "C"E E/D/ "Am"C E | "D"D A, B, C | "G"D3 (3G,/A,/B,/ ||
"C"C C "G"C/B,/C/D/ | "C"E E "G"E/^D/E/F/ | "C"G G G/^F/G/c/ | G3 C |\
"F"A > G F E | "Dm"D C B, C | "F"D E/F/ "G"E D | "C"C G,/A,/ B,/C/D/E/ |]
"G7"F F F F | F/E/ F2 ^F | "C"G G G/F/E/F/ | "C"G G,/A,/ B,/C/D/E/ |\
"G7"F F F F/E/ | F/E/ F2 ^F | "C"G G G/F/E/F/ | "C7"G3 C ||
"F"A > A c A | "C"G G G/F/ E | "G7"F F "E7"B, > F | "Am"E E E/D/ C |\
"F"A> A c A | "C"G G G/F/ E | "G7"F F B, D | "C"C3 |]

%%sep 1 1 500

